X:1
T:The Banner of the Cross
T:James McGranahan
T:The Banner of the Cross
T:Public Domain
T:Public Domain
C:James McGranahan
Z:Public Domain
%%score ( 1 2 ) ( 3 4 )
L:1/8
M:4/4
K:Bb
V:1 treble 
V:2 treble 
V:3 bass 
V:4 bass 
V:1
 [B,D]>[CE] | [DF]2 [DF]2 [DF]2 [DB]2 | [B,D]>[CE] [DF]>[EG] [DF]2 [FB]>[FB] | %3
w: 1.~There’s a|roy- al ban- ner|giv- en for dis- play To the|
w: 2.~Though the|foe may rage and|ga- ther as the flood, Let the|
w: 3.~O- ver|land and sea, wher-|ev- er man may dwell, Make the|
w: 4.~When the|glor- y dawns— ’tis|draw- ing ve- ry near, It is|
 [EA]2 [Ec]2 [EG]2 [EA]2 | (z2 (3[DB][DB][DB] [EB]2) [B,D]>[CE] | [DF]2 [DF]2 [DF]2 [DB]2 | %6
w: sol- diers of the|* * * * King; As|en- sign fair we|
w: stand- ard be dis-|* * * * played; And|neath its folds, as|
w: glor- ious tid- ings|* * * * known; Of|crim- son ban- ner|
w: hast- ening day by|* * * * day— Then|fore our King the|
 [B,D]>[CE] [DF]>[EG] [DF]2 [FB]>[FB] | [FA]2 [FB]2 [=EG]2 [Ec]2 | (z2 (3[CF][CF][CF] F2) || %9
w: lift it up to- day, While as|ran- somed ones we||
w: sol- diers of the Lord, For the|truth be not dis-||
w: now the sto- ry tell, While the|Lord shall claim His||
w: foe shall dis- ap- pear, And the|cross the world shall||
"^Refrain" F>[FA] | (A2 F2 [Ac]2) [Ad]>[Ac] | (B2- [DB]2 B2) [DB]2 | [Ee]2 [Ge]2 [Fd]>[Fc] B>d | %13
w: ||||
w: ||||
w: ||||
w: ||||
 F(GAB AG) F>[EF] | [DB]2 [Fd]2 F2 F2 | [EG]2 [GB]2 (G2 G2) | [Fd]2 [Fd]2 [Fd][DB] [Ec]>[Ec] | %17
w: ||||
w: ||||
w: ||||
w: ||||
 [DB]6 |] %18
w: |
w: |
w: |
w: |
V:2
 x2 | x8 | x8 | x8 | [DB]6 x2 | x8 | x8 | x8 | F6 || F3/2 x/ | c4 x4 | x4 F2 x2 | x6 F2 | %13
w: ||||an||||sing.|||||
w: ||||be-||||mayed!|||||
w: ||||the||||own!|||||
w: ||||be-||||sway!|||||
 c4- c2 x2 | x4 f4 | x4 e4 | x8 | x6 |] %18
w: |||||
w: |||||
w: |||||
w: |||||
V:3
 [B,,F,]>[D,F,] | [B,,B,]2 [B,,B,]2 [B,,B,]2 [B,,F,]2 | %2
w: ~ ~|~ ~ ~ ~|
 [B,,F,]>[B,,F,] [B,,B,]>[B,,B,] [B,,B,]2 [B,,D]>[B,,D] | [F,C]2 [F,A,]2 [F,C]2 F,2 | %4
w: ~ ~ ~ ~ ~ ~ ~|~ ~ ~ ~|
 (z2 (3[B,,F,][B,,F,][B,,F,] [B,,F,]2) [B,,F,]>[B,,F,] | [B,,F,]2 [B,,B,]2 [B,,B,]2 [B,,F,]2 | %6
w: * * * * ~ ~|~ ~ ~ ~|
 [B,,F,]>[B,,F,] [B,,B,]>[B,,B,] [B,,B,]2 [B,,D]>[B,,D] | [C,C]2 [C,A,]2 [C,C]2 [C,B,]2 | %8
w: ~ ~ ~ ~ ~ ~ ~|~ ~ ~ ~|
 (z2 (3[F,A,][F,A,][F,A,] [F,A,]2) || [F,A,]>[F,C] | ([F,E]2 [A,E]2 [CE]2) [F,F]>[F,E] | %11
w: |ing on,|march- * * ing on,|
 ([B,,D]2 [F,B,]2 [B,D]2) [A,B,]2 | [G,B,]2 [E,B,]2 [B,,B,]>[C,A,] [D,B,]2 | %13
w: For * * Christ|count ev- ery- thing but|
 [F,A,]([=E,B,][F,A,]G, F,_E,) [D,A,]>[C,A,] | [B,,B,]2 [B,,B,]2 [B,,D]2 [D,B,]2 | %15
w: loss! And * * * * to crown|King, we’ll toil and|
 [E,B,]2 [E,B,]2 ([E,B,]2 [C,C]2) | [F,B,]2 [F,B,]2 [F,B,][F,B,] [F,A,]>[F,A,] | [B,,F,B,]6 |] %18
w: sing, ’Neath the *|ban- ner of the cross! *||
V:4
 x2 | x8 | x8 | x6 F,2 | [B,,F,]6 x2 | x8 | x8 | x8 | [F,A,]6 || x2 | x8 | x8 | x8 | x4 C2 x2 | %14
w: |||~|~||||March-|||||Him|
 x8 | x8 | x8 | x6 |] %18
w: ||||

